image/ection-twacs-item-img4.svg

<svg fill="none" height="29" viewBox="0 0 29 29" width="29" xmlns="http://www.w3.org/2000/svg"><path clip-rule="evenodd" d="m16.2817 3.72878c1.6046 1.09657 3.2009 2.4168 4.7197 3.93565 1.5189 1.51888 2.8391 3.11517 3.9357 4.71977.9348-1.8366 1.4967-3.57566 1.6708-5.08441.2195-1.90278-.1848-3.30868-1.059-4.18283-.8741-.87416-2.28-1.27846-4.1828-1.05892-1.5087.17408-3.2478.73598-5.0844 1.67074zm9.876 10.60442c1.3405-2.3536 2.1939-4.69789 2.437-6.80417.26-2.25384-.1718-4.36649-1.6315-5.82628-1.4598-1.459794-3.5725-1.891578-5.8263-1.6315317-2.1063.2430217-4.4506 1.0965017-6.8041 2.4370117-2.3535-1.34043-4.69773-2.193854-6.80395-2.4368418-2.25377-.2600112-4.36636.1717858-5.82611 1.6315418-1.459769 1.45978-1.891557 3.57239-1.6315304 5.8262.2430044 2.10625 1.0964504 4.45057 2.4369204 6.80407-1.34036 2.3534-2.193724 4.6976-2.4366807 6.8038-.2599773 2.2537.1718287 4.3662 1.6315507 5.826 1.45973 1.4597 3.57227 1.8915 5.82599 1.6315 2.10618-.2429 4.45041-1.0963 6.80381-2.4367 2.3535 1.3405 4.6977 2.1939 6.804 2.4369 2.2537.26 4.3663-.1718 5.8261-1.6316 1.4597-1.4597 1.8915-3.5723 1.6315-5.826-.2429-2.1062-1.0963-4.4505-2.4367-6.8039zm-2.3324 0c-1.1159-1.7669-2.5403-3.5567-4.2381-5.25456-1.6978-1.69781-3.4876-3.12216-5.2544-4.23805-1.7667 1.11587-3.5564 2.54015-5.2541 4.23787-1.6979 1.69794-3.1223 3.48784-4.23822 5.25474 1.11588 1.7667 2.54019 3.5565 4.23796 5.2542 1.69776 1.6978 3.48756 3.1222 5.25436 4.2381 1.7669-1.1159 3.5568-2.5404 5.2547-4.2383 1.6977-1.6977 3.1219-3.4874 4.2378-5.254zm-7.5435 10.6041c1.6046-1.0966 3.2009-2.4169 4.7199-3.9358 1.5187-1.5188 2.8389-3.1149 3.9354-4.7194.9346 1.8365 1.4965 3.5755 1.6705 5.0842.2195 1.9027-.1848 3.3085-1.0589 4.1826-.8742.8742-2.28 1.2785-4.1827 1.059-1.5087-.1741-3.2477-.7359-5.0842-1.6706zm-3.898-.0001c-1.6046-1.0965-3.20076-2.4167-4.71958-3.9356-1.51878-1.5187-2.83897-3.1149-3.93551-4.7194-.9346 1.8364-1.49641 3.5753-1.67044 5.084-.21948 1.9026.18483 3.3084 1.05895 4.1826.87412.8741 2.27992 1.2784 4.18258 1.0589 1.50862-.174 3.2476-.7358 5.084-1.6705zm-8.65513-12.553c1.0966-1.6047 2.41689-3.20102 3.93582-4.71995 1.51875-1.51876 3.11491-2.83892 4.71931-3.93545-1.8365-.93468-3.57548-1.49654-5.08416-1.67059-1.90271-.21951-3.30855.1848-4.18268 1.05893-.87415.87415-1.27845 2.28002-1.05893 4.18276.17406 1.50871.73594 3.2477 1.67064 5.0843zm10.60423-.3846c-1.2886 0-2.3333 1.0447-2.3333 2.3333 0 1.2887 1.0447 2.3334 2.3333 2.3334 1.2887 0 2.3334-1.0447 2.3334-2.3334 0-1.2886-1.0447-2.3333-2.3334-2.3333zm-4.33329 2.3333c0-2.3932 1.94009-4.33329 4.33329-4.33329 2.3933 0 4.3334 1.94009 4.3334 4.33329 0 2.3933-1.9401 4.3334-4.3334 4.3334-2.3932 0-4.33329-1.9401-4.33329-4.3334z" fill="#4b4b4b" fill-rule="evenodd"/></svg>

<svg width="29" height="29" viewBox="0 0 29 29" fill="none" xmlns="http://www.w3.org/2000/svg">
<path fill-rule="evenodd" clip-rule="evenodd" d="M16.2817 3.72878C17.8863 4.82535 19.4826 6.14558 21.0014 7.66443C22.5203 9.18331 23.8405 10.7796 24.9371 12.3842C25.8719 10.5476 26.4338 8.80854 26.6079 7.29979C26.8274 5.39701 26.4231 3.99111 25.5489 3.11696C24.6748 2.2428 23.2689 1.8385 21.3661 2.05804C19.8574 2.23212 18.1183 2.79402 16.2817 3.72878ZM26.1577 14.3332C27.4982 11.9796 28.3516 9.63531 28.5947 7.52903C28.8547 5.27519 28.4229 3.16254 26.9632 1.70275C25.5034 0.242956 23.3907 -0.188828 21.1369 0.0712183C19.0306 0.31424 16.6863 1.16772 14.3328 2.50823C11.9793 1.1678 9.63507 0.314376 7.52885 0.0713882C5.27508 -0.188623 3.16249 0.243174 1.70274 1.70293C0.242971 3.16271 -0.188817 5.27532 0.0712096 7.52913C0.314214 9.63538 1.16766 11.9797 2.50813 14.3332C1.16777 16.6866 0.314406 19.0308 0.0714493 21.137C-0.188528 23.3907 0.243278 25.5032 1.703 26.963C3.16273 28.4227 5.27527 28.8545 7.52899 28.5945C9.63517 28.3516 11.9794 27.4982 14.3328 26.1578C16.6863 27.4983 19.0305 28.3517 21.1368 28.5947C23.3905 28.8547 25.5031 28.4229 26.9629 26.9631C28.4226 25.5034 28.8544 23.3908 28.5944 21.1371C28.3515 19.0309 27.4981 16.6866 26.1577 14.3332ZM23.8253 14.3332C22.7094 12.5663 21.285 10.7765 19.5872 9.07864C17.8894 7.38083 16.0996 5.95648 14.3328 4.84059C12.5661 5.95646 10.7764 7.38074 9.0787 9.07846C7.3808 10.7764 5.9564 12.5663 4.84048 14.3332C5.95636 16.0999 7.38067 17.8897 9.07844 19.5874C10.7762 21.2852 12.566 22.7096 14.3328 23.8255C16.0997 22.7096 17.8896 21.2851 19.5875 19.5872C21.2852 17.8895 22.7094 16.0998 23.8253 14.3332ZM16.2818 24.9373C17.8864 23.8407 19.4827 22.5204 21.0017 21.0015C22.5204 19.4827 23.8406 17.8866 24.9371 16.2821C25.8717 18.1186 26.4336 19.8576 26.6076 21.3663C26.8271 23.269 26.4228 24.6748 25.5487 25.5489C24.6745 26.4231 23.2687 26.8274 21.366 26.6079C19.8573 26.4338 18.1183 25.872 16.2818 24.9373ZM12.3838 24.9372C10.7792 23.8407 9.18304 22.5205 7.66422 21.0016C6.14544 19.4829 4.82525 17.8867 3.72871 16.2822C2.79411 18.1186 2.2323 19.8575 2.05827 21.3662C1.83879 23.2688 2.2431 24.6746 3.11722 25.5488C3.99134 26.4229 5.39714 26.8272 7.2998 26.6077C8.80842 26.4337 10.5474 25.8719 12.3838 24.9372ZM3.72867 12.3842C4.82527 10.7795 6.14556 9.18318 7.66449 7.66425C9.18324 6.14549 10.7794 4.82533 12.3838 3.7288C10.5473 2.79412 8.80832 2.23226 7.29964 2.05821C5.39693 1.8387 3.99109 2.24301 3.11696 3.11714C2.24281 3.99129 1.83851 5.39716 2.05803 7.2999C2.23209 8.80861 2.79397 10.5476 3.72867 12.3842ZM14.3329 11.9996C13.0443 11.9996 11.9996 13.0443 11.9996 14.3329C11.9996 15.6216 13.0443 16.6663 14.3329 16.6663C15.6216 16.6663 16.6663 15.6216 16.6663 14.3329C16.6663 13.0443 15.6216 11.9996 14.3329 11.9996ZM9.99961 14.3329C9.99961 11.9397 11.9397 9.99961 14.3329 9.99961C16.7262 9.99961 18.6663 11.9397 18.6663 14.3329C18.6663 16.7262 16.7262 18.6663 14.3329 18.6663C11.9397 18.6663 9.99961 16.7262 9.99961 14.3329Z" fill="#4B4B4B"/>
</svg>
